src/assets/img/component-categories/forms.svg

<?xml version="1.0" encoding="UTF-8"?>
<svg width="168px" height="77px" viewBox="0 0 168 77" version="1.1" xmlns="http://www.w3.org/2000/svg" xmlns:xlink="http://www.w3.org/1999/xlink">
    <!-- Generator: Sketch 41.2 (35397) - http://www.bohemiancoding.com/sketch -->
    <title>form-components</title>
    <desc>Created with Sketch.</desc>
    <defs>
        <rect id="path-1" x="0" y="0" width="19.6129032" height="19.5164835"></rect>
        <rect id="path-3" x="0" y="0" width="19.6129032" height="19.5164835"></rect>
        <rect id="path-5" x="0" y="0" width="19.6129032" height="19.5164835"></rect>
        <ellipse id="path-7" cx="8.67346939" cy="8.62068966" rx="8.67346939" ry="8.62068966"></ellipse>
    </defs>
    <g id="Website" stroke="none" stroke-width="1" fill="none" fill-rule="evenodd" opacity="0.87">
        <g id="Material-components-" transform="translate(-312.000000, -396.000000)">
            <g id="form-components" transform="translate(312.000000, 397.000000)">
                <g id="checkbox">
                    <g id="Checkbox-Component">
                        <g id="Page-1">
                            <g id="Material-Internal-Landing-Page-(Components)">
                                <g id="checkbox">
                                    <path d="M32.0354294,9 L68.0354294,9" id="text" stroke="#CED2D4" stroke-width="7.8408"></path>
                                    <path d="M32.0354294,36 L68.0354294,36" id="text" stroke="#CED2D4" stroke-width="7.8408"></path>
                                    <path d="M32.0354294,64 L68.0354294,64" id="text" stroke="#CED2D4" stroke-width="7.8408"></path>
                                    <g id="rectangle-Clipped">
                                        <mask id="mask-2" fill="white">
                                            <use xlink:href="#path-1"></use>
                                        </mask>
                                        <g id="path-1"></g>
                                        <g id="rectangle" mask="url(#mask-2)" stroke="#CED2D4" stroke-width="3.96">
                                            <rect id="path-1" x="0" y="0" width="19.6129032" height="19.5164835"></rect>
                                        </g>
                                    </g>
                                    <g id="rectangle-select-Clipped" transform="translate(0.000000, 26.835165)">
                                        <mask id="mask-4" fill="white">
                                            <use xlink:href="#path-3"></use>
                                        </mask>
                                        <g id="path-3"></g>
                                        <g id="rectangle-select" mask="url(#mask-4)" stroke="#00BCD4" stroke-width="3.96" fill="#00BDD5">
                                            <rect id="path-3" x="0" y="0" width="19.6129032" height="19.5164835"></rect>
                                        </g>
                                    </g>
                                    <g id="rectangle-Clipped" transform="translate(0.000000, 54.483516)">
                                        <mask id="mask-6" fill="white">
                                            <use xlink:href="#path-5"></use>
                                        </mask>
                                        <g id="path-5"></g>
                                        <g id="rectangle" mask="url(#mask-6)" stroke="#CED2D4" stroke-width="3.96">
                                            <rect id="path-5" x="0" y="0" width="19.6129032" height="19.5164835"></rect>
                                        </g>
                                    </g>
                                </g>
                            </g>
                        </g>
                    </g>
                </g>
                <g id="radio" transform="translate(98.000000, 0.000000)">
                    <g id="Radio-Component">
                        <g id="Page-1">
                            <g id="Material-Internal-Landing-Page-(Components)">
                                <g id="radio">
                                    <path d="M35.9214454,14.1064828 L66.8067768,14.1064828 L69.3641111,14.1064828 L69.3641111,6.89655172 L66.8067768,6.89655172 L35.9214454,6.89655172 L33.3641111,6.89655172 L33.3641111,14.1064828 L35.9214454,14.1064828 Z M35.9214454,42.5547586 L66.8067768,42.5547586 L69.3641111,42.5547586 L69.3641111,35.3448276 L66.8067768,35.3448276 L35.9214454,35.3448276 L33.3641111,35.3448276 L33.3641111,42.5547586 L35.9214454,42.5547586 Z M35.9214454,70.1409655 L66.8067768,70.1409655 L69.3641111,70.1409655 L69.3641111,62.9310345 L66.8067768,62.9310345 L35.9214454,62.9310345 L33.3641111,62.9310345 L33.3641111,70.1409655 L35.9214454,70.1409655 Z" id="text" fill="#D8D8D8"></path>
                                    <path d="M9.43239796,18.75 C14.6417675,18.75 18.8647959,14.5526696 18.8647959,9.375 C18.8647959,4.19733047 14.6417675,0 9.43239796,0 C4.22302842,0 0,4.19733047 0,9.375 C0,14.5526696 4.22302842,18.75 9.43239796,18.75 Z M9.43239796,46.3362069 C14.6417675,46.3362069 18.8647959,42.1388765 18.8647959,36.9612069 C18.8647959,31.7835373 14.6417675,27.5862069 9.43239796,27.5862069 C4.22302842,27.5862069 0,31.7835373 0,36.9612069 C0,42.1388765 4.22302842,46.3362069 9.43239796,46.3362069 Z" id="select" stroke="#CED2D4" stroke-width="1.9008"></path>
                                    <ellipse id="oval" stroke="#CED2D4" stroke-width="1.9008" cx="9.43239796" cy="65.4094828" rx="9.43239796" ry="9.375"></ellipse>
                                    <g id="oval-Clipped" transform="translate(0.867347, 28.448276)">
                                        <mask id="mask-8" fill="white">
                                            <use xlink:href="#path-7"></use>
                                        </mask>
                                        <g id="path-1"></g>
                                        <g id="oval" mask="url(#mask-8)" stroke="#FFFFFF" stroke-width="3" fill="#00BCD4">
                                            <ellipse id="path-1" cx="8.67346939" cy="8.62068966" rx="8.67346939" ry="8.62068966"></ellipse>
                                        </g>
                                    </g>
                                </g>
                            </g>
                        </g>
                    </g>
                </g>
            </g>
        </g>
    </g>
</svg>

<svg width="168" height="77" viewBox="0 0 168 77" xmlns="http://www.w3.org/2000/svg" xmlns:xlink="http://www.w3.org/1999/xlink"><title>form-components</title><defs><path id="a" d="M0 0h19.613v19.516H0z"/><path id="c" d="M0 0h19.613v19.516H0z"/><path id="e" d="M0 0h19.613v19.516H0z"/><ellipse id="g" cx="8.673" cy="8.621" rx="8.673" ry="8.621"/></defs><g fill="none" fill-rule="evenodd" opacity=".87"><path d="M32.035 10h36M32.035 37h36M32.035 65h36" stroke="#CED2D4" stroke-width="7.841"/><g transform="translate(0 1)"><mask id="b" fill="#fff"><use xlink:href="#a"/></mask><g mask="url(#b)" stroke="#CED2D4" stroke-width="3.96"><path d="M0 0h19.613v19.516H0z"/></g></g><g transform="translate(0 27.835)"><mask id="d" fill="#fff"><use xlink:href="#c"/></mask><g mask="url(#d)" stroke="#00BCD4" stroke-width="3.96" fill="#00BDD5"><path d="M0 0h19.613v19.516H0z"/></g></g><g transform="translate(0 55.484)"><mask id="f" fill="#fff"><use xlink:href="#e"/></mask><g mask="url(#f)" stroke="#CED2D4" stroke-width="3.96"><path d="M0 0h19.613v19.516H0z"/></g></g><g><g transform="translate(98 1)"><path d="M35.921 14.106h33.443v-7.21h-36v7.21h2.557zm0 28.449h33.443v-7.21h-36v7.21h2.557zm0 27.586h33.443v-7.21h-36v7.21h2.557z" fill="#D8D8D8"/><path d="M9.432 18.75c5.21 0 9.433-4.197 9.433-9.375S14.642 0 9.432 0C4.223 0 0 4.197 0 9.375s4.223 9.375 9.432 9.375zm0 27.586c5.21 0 9.433-4.197 9.433-9.375 0-5.177-4.223-9.375-9.433-9.375C4.223 27.586 0 31.784 0 36.961c0 5.178 4.223 9.375 9.432 9.375z" stroke="#CED2D4" stroke-width="1.901"/><ellipse stroke="#CED2D4" stroke-width="1.901" cx="9.432" cy="65.409" rx="9.432" ry="9.375"/><g transform="translate(.867 28.448)"><mask id="h" fill="#fff"><use xlink:href="#g"/></mask><g mask="url(#h)" stroke="#FFF" stroke-width="3" fill="#00BCD4"><ellipse cx="8.673" cy="8.621" rx="8.673" ry="8.621"/></g></g></g></g></g></svg>
